!!!OTL: Folk song Number 21
!!!CNT: Chinese
**kern
*k[b-]
*M2/4
=1
8dd
8dd
(16dd
16cc)
8a
=2
4.cc
8cc
=3
8dd
8dd
(16dd
16cc)
8a
=4
4.g
8g
=5
8gg
8gg
8gg
8cc
=6
(8ff
8dd)
4dd
=7
8dd
8dd
(16dd
16cc)
8a
=8
4.cc
8cc
=9
(16dd
16ff)
8cc
(16dd
16ff)
8cc
=10
8dd
8g
4g
=11
8g
16a
16cc
8g
(16f
16d)
=12
2dd
==
*-
!!!PPR: Yin yueh ch'u pan she
!!!OPR: Chung-kuo min ko Chung-kuo yin yueh yen chiu so pien [Chinese folk songs]
!!!OCL: Chung-kuo yin yueh yen chiu so
!!!PPP: Beijing, China
!!!PDT: 1959///
!!!SML: Edward Johnson Library, University of Toronto M1804.C4694C5
!!!PPG: p.18
!!!ENC: David Huron
!!!EMD: Paul von Hippel updated this file in the following ways (1998/9/29/):
!!!EMD:  (1) changed the representation of slurs from curly braces to parentheses 
!!!EMD:  (2) changed freeform comments into reference records and tandem interpretations
!!!EMD:  (3) corrected the author, title, author, and call number of the printed source 
!!!EEV: Version 2.0
